X: 91
T:Original Varsoviana,The. WI.091
M:3/4
L:1/8
Q:140
S:Wm Irwin, Folio MS, c1850. AGG's Transcription
R:Waltz
O:England
A:Lake District
Z:vmp.Chris Partington.2005
K:C
E>F|G2c2A2|^G4E>F|E2d2B2|A4|!
E>F|E2e2c2|B4d>f|e>dc2B2A4:|!
|:G2|{f}e>^de2G2|{f}e>^de2G2|{f}e>^de2f2|d4G2|!
{g}f>ef2G2|{g}f>ef2G2|{g}f>ef2g2|e4:|!
|:e2|decdBc|A4^f2|e^fdeBc|B4:|!
|:G2|{f}e>^de2f2|{a}g>fg2^g2|a>^ga2b2|c'4e2|!
{f}e>^de2f2|{a}g>^fg2^g2|a>gf2d2|c4:|]
